icons/svg/seamark_big/landmark_windsock.svg

<?xml version="1.0" encoding="UTF-8" standalone="no"?>
<svg
   xmlns:dc="http://purl.org/dc/elements/1.1/"
   xmlns:cc="http://creativecommons.org/ns#"
   xmlns:rdf="http://www.w3.org/1999/02/22-rdf-syntax-ns#"
   xmlns:svg="http://www.w3.org/2000/svg"
   xmlns="http://www.w3.org/2000/svg"
   xmlns:sodipodi="http://sodipodi.sourceforge.net/DTD/sodipodi-0.dtd"
   xmlns:inkscape="http://www.inkscape.org/namespaces/inkscape"
   width="1060"
   height="1060"
   id="svg2"
   version="1.1"
   inkscape:version="0.48.4 r9939"
   sodipodi:docname="landmark_windsock.svg">
  <defs
     id="defs13">
    <inkscape:path-effect
       effect="gears"
       id="path-effect3774"
       is_visible="true"
       teeth="6"
       phi="-1.2" />
    <inkscape:path-effect
       effect="bend_path"
       id="path-effect3772"
       is_visible="false"
       bendpath="m 95.790098,316.51174 c 144.429032,-206.42506 223.313032,-11.7428 339.548092,0"
       prop_scale="1.19"
       scale_y_rel="false"
       vertical="false"
       bendpath-nodetypes="cc" />
  </defs>
  <sodipodi:namedview
     pagecolor="#ffffff"
     bordercolor="#666666"
     borderopacity="1"
     objecttolerance="10"
     gridtolerance="10"
     guidetolerance="10"
     inkscape:pageopacity="0"
     inkscape:pageshadow="2"
     inkscape:window-width="1920"
     inkscape:window-height="1004"
     id="namedview11"
     showgrid="false"
     inkscape:zoom="0.40689655"
     inkscape:cx="1109.5144"
     inkscape:cy="686.90523"
     inkscape:window-x="1680"
     inkscape:window-y="0"
     inkscape:window-maximized="1"
     inkscape:current-layer="svg2"
     inkscape:snap-object-midpoints="true"
     inkscape:snap-center="true" />
  <metadata
     id="metadata2975">image/svg+xmlen<rdf:RDF>
  <cc:Work
     rdf:about="">
    <dc:format>image/svg+xml</dc:format>
    <dc:type
       rdf:resource="http://purl.org/dc/dcmitype/StillImage" />
    <dc:title />
  </cc:Work>
</rdf:RDF>
</metadata>
  <path
     sodipodi:type="inkscape:offset"
     inkscape:radius="42.39938"
     inkscape:original="M 497.25 253.875 L 497.25 689.4375 C 480.72224 693.96878 467.7088 707.20757 463.53125 723.875 L 403.28125 723.875 L 403.28125 746.9375 L 463.53125 746.9375 C 468.7209 767.63433 487.52889 783.0625 509.78125 783.0625 C 532.03361 783.0625 550.86899 767.63433 556.0625 746.9375 L 616.28125 746.9375 L 616.28125 723.875 L 556.0625 723.875 C 551.72833 706.59553 537.86696 692.99477 520.46875 688.96875 L 520.46875 403.8125 C 547.85461 397.87872 569.91329 402.059 590.90625 411.875 C 614.37953 422.85077 636.26103 441.45349 659.28125 461.375 C 705.32169 501.21802 757.68008 546.61046 840.03125 536.125 A 10.351035 10.351035 0 0 0 849.09375 525.6875 L 848.21875 476.84375 A 10.351035 10.351035 0 0 0 840.25 466.96875 C 779.5428 452.4759 728.18751 400.13299 677.09375 351.1875 C 651.54687 326.71475 626.05949 303.20735 598.6875 286.3125 C 574.73701 271.52951 548.97109 261.81552 521.1875 261.90625 C 520.94987 261.90703 520.70667 261.90425 520.46875 261.90625 L 520.46875 253.875 L 497.25 253.875 z M 521.3125 282.5625 C 544.12059 282.45689 565.52896 290.30659 587.09375 303.5 L 564.46875 382.15625 C 550.76165 379.94964 536.11336 379.92449 520.46875 382.75 L 520.46875 282.59375 C 520.75078 282.58975 521.03091 282.5638 521.3125 282.5625 z M 604 314.90625 C 620.35154 326.89678 636.68438 341.47221 653.25 357.09375 L 624.1875 407.03125 C 616.3386 401.81526 608.20893 397.1095 599.6875 393.125 C 594.39969 390.65249 588.93671 388.49626 583.3125 386.6875 L 604 314.90625 z M 667.65625 370.875 C 678.22704 381.05434 688.90013 391.42354 699.84375 401.6875 L 671.375 444.5 C 661.05232 435.56703 650.70988 426.67061 640 418.4375 L 667.65625 370.875 z M 714.3125 414.96875 C 723.76905 423.45943 733.42199 431.70318 743.375 439.4375 L 717.65625 482.28125 C 706.86188 474.55771 696.48885 466.03697 686.1875 457.25 L 714.3125 414.96875 z M 759.0625 451 C 767.77715 457.06355 776.74774 462.66625 785.96875 467.65625 L 772.09375 510.4375 C 758.40819 506.24159 745.80129 500.21706 733.84375 493 L 759.0625 451 z M 803.59375 476.25 C 811.39532 479.63706 819.3989 482.57815 827.625 484.9375 L 828.1875 516.4375 C 814.90368 517.43025 802.57742 516.82171 791.03125 514.90625 L 803.59375 476.25 z M 509.78125 704.875 C 526.7358 704.875 540.3125 718.4517 540.3125 735.40625 C 540.3125 752.3608 526.7358 765.90625 509.78125 765.90625 C 492.8267 765.90625 479.28125 752.3608 479.28125 735.40625 C 479.28125 718.4517 492.8267 704.875 509.78125 704.875 z "
     style="font-size:medium;font-style:normal;font-variant:normal;font-weight:normal;font-stretch:normal;text-indent:0;text-align:start;text-decoration:none;line-height:normal;letter-spacing:normal;word-spacing:normal;text-transform:none;direction:ltr;block-progression:tb;writing-mode:lr-tb;text-anchor:start;baseline-shift:baseline;opacity:0.372;color:#000000;fill:#e4e4e4;fill-opacity:1;fill-rule:nonzero;stroke:#a35151;stroke-width:0;stroke-linecap:round;stroke-linejoin:miter;stroke-miterlimit:4;stroke-opacity:1;stroke-dasharray:none;stroke-dashoffset:0;marker:none;visibility:visible;display:inline;overflow:visible;enable-background:accumulate;font-family:Sans;-inkscape-font-specification:Sans"
     id="path3943"
     d="M 497.25,211.46875 A 42.40362,42.40362 0 0 0 454.84375,253.875 l 0,410.25 c -6.47811,4.98858 -12.28537,10.79476 -17.1875,17.34375 l -34.375,0 A 42.40362,42.40362 0 0 0 360.875,723.875 l 0,23.0625 a 42.40362,42.40362 0 0 0 42.40625,42.40625 l 34.53125,0 c 16.50651,21.95308 42.69532,36.125 71.96875,36.125 29.27343,0 55.48414,-14.17269 72,-36.125 l 34.5,0 A 42.40362,42.40362 0 0 0 658.6875,746.9375 l 0,-23.0625 a 42.40362,42.40362 0 0 0 -42.40625,-42.40625 l -34.46875,0 c -5.36201,-7.14959 -11.71865,-13.48412 -18.9375,-18.75 l 0,-216.5625 c 3.20466,1.09827 6.47365,2.44691 10.0625,4.125 15.97998,7.47201 35.75051,23.38789 58.59375,43.15625 46.00897,39.81578 114.02172,97.42398 213.78125,84.75 -0.52472,0.0658 -0.44212,-0.046 -0.0312,-0.25 l 0.0312,0.25 c 0.0211,-0.003 0.0414,0.003 0.0625,0 l -0.0312,-0.28125 c 2.33548,-1.13094 15.71847,-5.38067 18.125,-5.75 1.67941,-1.82025 12.74566,-10.63348 14.90625,-11.875 0.91124,-2.2926 8.13506,-14.57923 9.6875,-16.46875 0.0463,-2.93005 3.3087,-21.68685 3.4375,-18.875 l -0.875,-48.84375 a 42.40362,42.40362 0 0 0 0,-0.0625 c 0.0676,3.52351 -4.39288,-20.34286 -3.1875,-17.03125 1.20538,3.31161 -10.7444,-17.83632 -8.53125,-15.09375 2.21315,2.74257 -15.91973,-13.37775 -12.9375,-11.5 2.93449,1.84769 -18.44929,-7.10662 -15.875,-6.625 l 0,-0.0625 C 806.56073,415.32596 758.18683,370.136 706.4375,320.5625 680.51216,295.7272 653.28872,270.16765 620.96875,250.21875 599.47501,236.95214 574.96953,226.16798 548,221.71875 a 42.40362,42.40362 0 0 0 -27.53125,-10.25 l -23.21875,0 z M 509.78125,723.5 c 5.62813,0 11.90625,6.27812 11.90625,11.90625 0,5.62813 -6.22602,11.875 -11.90625,11.875 -5.68023,0 -11.875,-6.19477 -11.875,-11.875 0,-5.68023 6.24687,-11.90625 11.875,-11.90625 z" />
  <path
     sodipodi:type="arc"
     style="color:#000000;fill:none;stroke:#000000;stroke-width:30.33652288;stroke-linecap:butt;stroke-linejoin:miter;stroke-miterlimit:4;stroke-opacity:1;stroke-dasharray:none;stroke-dashoffset:0;marker:none;visibility:visible;display:inline;overflow:visible;enable-background:accumulate"
     id="path2985"
     sodipodi:cx="510.26483"
     sodipodi:cy="737.74365"
     sodipodi:rx="69.120766"
     sodipodi:ry="69.120766"
     d="m 579.3856,737.74365 a 69.120766,69.120766 0 1 1 -138.24153,0 69.120766,69.120766 0 1 1 138.24153,0 z"
     transform="matrix(0.56558888,0,0,0.56558888,221.05031,318.17685)" />
  <path
     style="font-size:medium;font-style:normal;font-variant:normal;font-weight:normal;font-stretch:normal;text-indent:0;text-align:start;text-decoration:none;line-height:normal;letter-spacing:normal;word-spacing:normal;text-transform:none;direction:ltr;block-progression:tb;writing-mode:lr-tb;text-anchor:start;baseline-shift:baseline;color:#000000;fill:#000000;fill-opacity:1;stroke:none;stroke-width:30.00000191;marker:none;visibility:visible;display:inline;overflow:visible;enable-background:accumulate;font-family:Sans;-inkscape-font-specification:Sans"
     d="m 403.14276,723.91311 0,23.04878 67.30005,0 0,-23.04878 z m 145.69568,0 0,23.04878 67.30005,0 0,-23.04878 z"
     id="path3754"
     inkscape:connector-curvature="0"
     sodipodi:nodetypes="cccccccccc" />
  <path
     style="fill:none;stroke:#000000;stroke-width:23.20000076;stroke-linecap:butt;stroke-linejoin:miter;stroke-miterlimit:4;stroke-opacity:1;stroke-dasharray:none"
     d="m 508.72882,696.27118 0,-442.37288"
     id="path3860"
     inkscape:connector-curvature="0"
     sodipodi:nodetypes="cc" />
  <path
     style="fill:none;stroke:#000000;stroke-width:20.70000076;stroke-linecap:round;stroke-linejoin:round;stroke-miterlimit:4;stroke-opacity:1;stroke-dasharray:none"
     d="M 510.10671,272.87567 C 628.68677,260.36842 708.13829,446.13096 837.7253,477.06773 l 0.8689,48.83939 C 682.2614,545.81238 644.7905,356.32561 507.5,396.44067"
     id="path3862"
     inkscape:connector-curvature="0"
     sodipodi:nodetypes="cccc" />
  <path
     style="fill:none;stroke:#000000;stroke-width:19.39999962;stroke-linecap:butt;stroke-linejoin:miter;stroke-miterlimit:4;stroke-opacity:1;stroke-dasharray:none"
     d="M 566.58847,391.32208 588.6092,293.47032"
     id="path3860-9"
     inkscape:connector-curvature="0"
     sodipodi:nodetypes="cc" />
  <path
     style="fill:none;stroke:#000000;stroke-width:19.39999962;stroke-linecap:butt;stroke-linejoin:miter;stroke-miterlimit:4;stroke-opacity:1;stroke-dasharray:none"
     d="m 619.28572,415.57639 40.07492,-63.90281"
     id="path3860-9-3"
     inkscape:connector-curvature="0"
     sodipodi:nodetypes="cc" />
  <path
     style="fill:none;stroke:#000000;stroke-width:19.39999962;stroke-linecap:butt;stroke-linejoin:miter;stroke-miterlimit:4;stroke-opacity:1;stroke-dasharray:none"
     d="m 673.83382,458.13982 37.3628,-56.18812"
     id="path3860-9-3-4"
     inkscape:connector-curvature="0"
     sodipodi:nodetypes="cc" />
  <path
     style="fill:none;stroke:#000000;stroke-width:19.39999962;stroke-linecap:butt;stroke-linejoin:miter;stroke-miterlimit:4;stroke-opacity:1;stroke-dasharray:none"
     d="M 722.49235,492.89591 754.64174,439.3145"
     id="path3860-9-3-4-2"
     inkscape:connector-curvature="0"
     sodipodi:nodetypes="cc" />
  <path
     style="fill:none;stroke:#000000;stroke-width:19.39999962;stroke-linecap:butt;stroke-linejoin:miter;stroke-miterlimit:4;stroke-opacity:1;stroke-dasharray:none"
     d="m 779.83991,517.65964 17.37804,-53.58142"
     id="path3860-9-3-4-2-8"
     inkscape:connector-curvature="0"
     sodipodi:nodetypes="cc" />
</svg>

<svg width="1060" height="1060" viewBox="0 0 1060 1060" fill="none" xmlns="http://www.w3.org/2000/svg">
<path opacity="0.372" d="M497.25 211.469C491.681 211.468 486.167 212.565 481.021 214.696C475.876 216.827 471.201 219.951 467.263 223.888C463.326 227.826 460.202 232.501 458.071 237.646C455.94 242.792 454.843 248.306 454.844 253.875V664.125C448.366 669.114 442.558 674.92 437.656 681.469H403.281C397.712 681.468 392.198 682.565 387.053 684.696C381.908 686.827 377.233 689.951 373.295 693.888C369.357 697.826 366.233 702.501 364.102 707.646C361.971 712.792 360.875 718.306 360.875 723.875V746.938C360.875 752.506 361.971 758.021 364.102 763.166C366.233 768.311 369.357 772.986 373.295 776.924C377.233 780.862 381.908 783.985 387.053 786.116C392.198 788.247 397.712 789.344 403.281 789.344H437.812C454.319 811.297 480.508 825.469 509.781 825.469C539.055 825.469 565.265 811.296 581.781 789.344H616.281C621.85 789.344 627.365 788.247 632.51 786.116C637.655 783.985 642.33 780.862 646.268 776.924C650.206 772.986 653.329 768.311 655.46 763.166C657.591 758.021 658.688 752.506 658.688 746.938V723.875C658.688 718.306 657.591 712.792 655.46 707.646C653.329 702.501 650.206 697.826 646.268 693.888C642.33 689.951 637.655 686.827 632.51 684.696C627.365 682.565 621.85 681.468 616.281 681.469H581.812C576.45 674.319 570.094 667.985 562.875 662.719V446.156C566.08 447.255 569.349 448.603 572.938 450.281C588.917 457.753 608.688 473.669 631.531 493.438C677.54 533.253 745.553 590.861 845.312 578.188C844.788 578.253 844.87 578.141 845.281 577.938L845.312 578.188C845.334 578.184 845.354 578.191 845.375 578.188L845.344 577.906C847.679 576.775 861.062 572.526 863.469 572.156C865.148 570.336 876.214 561.523 878.375 560.281C879.286 557.989 886.51 545.702 888.063 543.812C888.109 540.882 891.371 522.126 891.5 524.938L890.625 476.094C890.625 476.073 890.625 476.052 890.625 476.031C890.693 479.555 886.232 455.688 887.438 459C888.643 462.312 876.693 441.164 878.906 443.906C881.119 446.649 862.987 430.528 865.969 432.406C868.903 434.254 847.52 425.3 850.094 425.781V425.719C806.561 415.326 758.187 370.136 706.438 320.562C680.512 295.727 653.289 270.168 620.969 250.219C599.475 236.952 574.97 226.168 548 221.719C540.337 215.131 530.574 211.496 520.469 211.469H497.25ZM509.781 723.5C515.409 723.5 521.688 729.778 521.688 735.406C521.688 741.034 515.461 747.281 509.781 747.281C504.101 747.281 497.906 741.086 497.906 735.406C497.906 729.726 504.153 723.5 509.781 723.5Z" fill="#E4E4E4"/>
<path d="M548.745 735.437C548.745 740.571 547.735 745.655 545.771 750.399C543.806 755.143 540.927 759.453 537.297 763.084C533.666 766.715 529.356 769.596 524.613 771.561C519.869 773.526 514.785 774.537 509.651 774.537C504.516 774.537 499.432 773.526 494.688 771.561C489.945 769.596 485.635 766.715 482.005 763.084C478.374 759.453 475.495 755.143 473.531 750.399C471.566 745.655 470.556 740.571 470.557 735.437C470.556 730.302 471.566 725.218 473.531 720.474C475.495 715.73 478.374 711.42 482.005 707.789C485.635 704.158 489.945 701.277 494.688 699.312C499.432 697.347 504.516 696.336 509.651 696.336C514.785 696.336 519.869 697.347 524.613 699.312C529.356 701.277 533.666 704.158 537.297 707.789C540.927 711.42 543.806 715.73 545.771 720.474C547.735 725.218 548.745 730.302 548.745 735.437Z" stroke="black" stroke-width="17.158"/>
<path d="M403.143 723.913V746.962H470.443V723.913H403.143ZM548.838 723.913V746.962H616.138V723.913H548.838Z" fill="black"/>
<path d="M508.729 696.271V253.898" stroke="black" stroke-width="23.2"/>
<path d="M510.107 272.876C628.687 260.369 708.138 446.131 837.725 477.068L838.594 525.907C682.261 545.812 644.79 356.326 507.5 396.441" stroke="black" stroke-width="20.7" stroke-linecap="round" stroke-linejoin="round"/>
<path d="M566.588 391.322L588.609 293.47" stroke="black" stroke-width="19.4"/>
<path d="M619.286 415.576L659.361 351.674" stroke="black" stroke-width="19.4"/>
<path d="M673.834 458.14L711.197 401.952" stroke="black" stroke-width="19.4"/>
<path d="M722.492 492.896L754.642 439.314" stroke="black" stroke-width="19.4"/>
<path d="M779.84 517.66L797.218 464.078" stroke="black" stroke-width="19.4"/>
</svg>
